X: 341
T: weilao balujiun
%%abc-version 2.0
%%abcx-abcm2ps-target-version 5.9.1 (29 Sep 2008)
%%abc-creator hum2abc beta
%%abcx-conversion-date 2013/10/02 07:52:30
%%abc-edited-by Helmut Schaffrath
%%humdrum-veritas 1003387026
%%humdrum-veritas-data 3874741267
%%continueall 1
%%barnumbers 0
L: 1/8
M: 2/4
K: G
d d/ d/ g e/ d/ [I:setbarnb 1]| 
c ed2 | 
g e/ d/ B B/ A/ | 
G ED2 | 
d d e d | 
G> BA2 | 
A E/ E/ G E | 
D4 |]  



